!!!COM: Claude Debussy
!!!CNT: Francais
!!!TXO: Francais
!!!OTL: De re^ve
!!!LYR: Claude Debussy
!!!OPR: Proses Lyriques
!!!ONM: No. 1
!!!ENC: Jacob Pegg
!!!YOR: Claude Debussy: Songs 1880-1904, 'Edited' by Rita Benton
!!!YOR: New York: Dover publications, inc., 1981
!!!YOR: ISBN 0-486-24131-9
!!!ODT: 1892/
!!NB: Vocal melody and text only encoded.
!!NB: First instance of melodic material only encoded.
**kern	**silbe
*clef G2	*
*k[f#c#]	*
*M12/8	*
*MM85	*
!!created: 7/22/03 17:24
!!last edit: 7/23/03 9:42
!!notes in 39 min; words in 19; notes chk 18, wrd chk 9
!!total edit time: 85 min.
=1	=1
2.r	.
4.r	.
{4.a-	{La
=2	=2
8g-	nuit
8g-	a
8g-	des
8a-	dou-
8a-	-ceurs
8a-	de
4.g-	fem-
4e-}	-me,}
8r	.
=3	=3
8r	.
8r	.
{8c#	{Et
4fn	les
8fn	vieux
8c#	ar-
8c#	-bres,
8c#	sous
8fn	la
8fn	lu-
8fn	-ne
=4	=4
4.a#	d'or,
(2.dd	Son-
4.a#)}	-gent!}
=5	=5
1.r	.
=6	=6
*M3/4	*
*MM[andantino]	*
2r	.
4r	.
=7	=7
4r	.
2r	.
=8	=8
4r	.
4r	.
{4f#	{A
=9	=9
8g#	Cel-
8g#	-le
8g#	qui
8g#	vient
8g#	de
8g#	pas-
=10	=10
2a	-ser,
8gn	la
8a	|
=11	=11
4b	te^-
4a	-te em-
4g	-per-
=12	=12
[2.f#	-le/
=13	=13
4f#]}	-e.}
4r	.
4r	.
=14	=14
{8g	{Main-
8f#	-te-
4fn	-nant
4a	na-
=15	=15
2g#	-vre/-
4e	-e,
=16	=16
8gn	a
8f#	ja-
4fn	-mais
8c#	na-
8f#	|
=17	=17
2e	-vre/-
4e}	-e,}
=18	=18
4r	.
2r	.
=19	=19
4r	.
4r	.
{4a	{Ils
=20	=20
2b	n'ont
4cc#	pas
=21	=21
2.ff#	su
=22	=22
4ffn	lui
4ee	fai-
4dd	-re
=23	=23
2a	si-
4fn}	-gne...}
!!24-31 rest
=31	=31
4r	.
{(4dd	{Tou-
8g)}	-tes!}
8r	.
=32	=32
4r	.
{8g	{El-
8g	-les
8g	ont
8g	pas-
=33	=33
2b}	-se/:}
4r	.
=34	=34
8r	.
{8a	{Les
(4cc#	Fre^-
8g#)}	-les,}
8r	.
=35	=35
8r	.
{8a	{les
(4ee	Fol-
8b)}	-les,}
8r	.
=36	=36
8r	.
{8b	{Se-
16dd	-mant
16b	leur
[8dd	rire
16dd]	|
(16b	au
16a	ga-
16b	-zon
=37	=37
2g#	gre^-
4f#)}	-le,}
=38	=38
8r	.
{8fn	{Aux
12gn	bri-
12a	-ses
12b	fro^-
8cc#	-leu-
8a}	-ses}
=39	=39
12r	.
{12fn	{la
12g	ca-
12a	-res-
12b	-se
12dd	char-
8cc#	-meu-
8a}	-se}
=40	=40
12r	.
12r	.
{12f#	{des
12g	han-
12f#	|
12g	-ches
12g#	fleu-
12f##	|
12g#	-ris-
=41	=41
(4b-	-san-
4a	|
4g#	|
=42	=42
2.e)}	-tes.}
!!dot added to correct timing.
=43	=43
4r	.
4r	.
8r	.
{8e	{He/-
=44	=44
4e}	-las,}
8r	.
{8e	{de
8e	tout
8a	ce-
=45	=45
4fn}	-ci,}
4r	.
{4a	{plus
=46	=46
4.fn	rien
8fn	qu'un
8fn	blanc
8fn	fris-
=47	=47
*M12/8	*
*MM85	*
4e}	-son...}
8r	.
1r	.
8r	.
!! 48-49 same as mm. 3-4
=50	=50
!! meter change not written until m. 53
*M4/4	*
4r	.
{4f#	{leurs
8f#	bel-
8f#	-les
8f#	feuil-
8f#	-les
=51	=51
[1ff#	d'or!
=52	=52
4ff#]}	|}
4r	.
2r	.
=53	=53
*k[f#c#g#d#a#]	*
4r	.
{[4b	{Nul
8b]	|
8b	ne
8a#	leur
8b	de/-
=54	=54
8b	-die-
8dd#	-ra
2dd#	plus
8ddn	la
8dd#	fier-
=55	=55
2gg#}	-te/}
8r	.
{8g#	{des
8g#	cas-
8dd#	-ques
=56	=56
2.dd#}	d'or}
{8cc#	{Main-
8a#	-te-
=57	=57
8f#	-nant
8d#	ter-
2d#	-nis,
8c##	a\
8d#	ja-
=58	=58
8d#	-mais
8B	ter-
2B}	-nis:}
4r	.
=59	=59
*k[]	*
2r	.
4r	.
{4c	{Les
=60	=60
4c	che-
4d	-va-
4e	-liers
4d	sont
=61	=61
2.c}	morts}
{4c	{Sur
=62	=62
4d	le
4d	che-
4d	-min
4d	du
=63	=63
1e}	Gra^al!}
=64	=64
1r	.
=65	=65
!!65-66 same as 1-2
*M12/8	*
*k[f#c#]	*
1.r	.
=66	=66
2.r	.
2.r	.
=67	=67
*M3/4	*
4r	.
4r	.
{4e	{Des
=68	=68
2.a#}	mains}
=69	=69
8r	.
{[8b	{sem-
8b]	|
8g#	-blent
12f#	fro^-
12e	-ler
12g#	les
=70	=70
[2.b-	a^-
=71	=71
2b-]	|
4fn}	-mes,}
=72	=72
4r	.
{4.fn	{Mains
8fn	si
=73	=73
2ccn	fol-
4fn}	-les,}
=74	=74
4r	.
4r	.
{4fn	{si
=75	=75
2dd	fre^-
4dd}	-les,}
=76	=76
2r	.
4r	.
=77	=77
2r	.
{8cc##	{Au
8dd#	|
=78	=78
4.gg#	temps
8dd#	ou\
8.cc##	les
16dd#	e/-
=79	=79
2dd#	-pe/-
4g#}	-es}
=80	=80
8r	.
{(8a	{chan-
8a#	-taient
8b	|
8ccn	pour
8cc#)	|
=81	=81
(4aa	El-
8dd#	|
8cc#	|
8a	|
8a#	|
=82	=82
2cc#)}	-les!}
4r	.
=83	=83
2r	.
4r	.
=84	=84
8r	.
{8e	{D'e/-
4e	-tran-
8e	-ges
8e	sou-
=85	=85
2e	-pirs
4e	s'e/-
=86	=86
4.dn	-le\-
8dn	-vent
8dn	sous
8dn	les
=87	=87
2d	ar-
4d}	-bres:}
=88	=88
*k[f#c#g#d#a#e#]	*
4r	.
2r	.
=89	=89
4r	.
4r	.
{4f#	{Mon
=90	=90
2a#	a^-
4f#}	-me}
=91	=91
4r	.
{4f#	{c'est
4f#	du
=92	=92
2g#	re^ve
8g#	an-
8g#	-ci-
=93	=93
2.cc#	-en
=94	=94
4.cc#	qui
4.cc#	t'e/-
=95	=95
2.cc#}	-treint!}
*-	*-
